src/assets/images/organizer-shape.svg

<svg height="252" viewBox="0 0 237 252" width="237" xmlns="http://www.w3.org/2000/svg"><path d="m917.283926 345.07252c-6.667419 19.761178-18.736497 34.788083-35.618694 45.761844-13.93144 9.022869-28.983523 14.774634-45.107875 17.852332-16.406528 3.229061-32.708248 3.279515-49.058341-1.135216-13.560581-3.775647-25.774777-10.38513-37.029575-19.130503-17.261258-13.252286-32.324663-29.364248-44.591896-47.695916-7.981554-11.982843-14.326487-24.714087-17.277243-38.99259-2.902384-13.681462-1.733368-27.034973 2.507336-40.144623 4.192332-12.966697 10.682384-24.646815 18.349513-35.586939 11.851399-16.658253 25.476477-31.634704 41.350901-44.189359 11.327358-9.02287 23.533492-16.25462 37.424622-20.265719 13.092974-3.716783 26.089201-3.254288 39.133802.672721 14.124933 4.221324 26.734176 11.621255 38.513016 20.711397 13.544455 10.528083 25.452289 22.796832 35.255896 37.302377 9.614227 14.29137 16.284829 30.505664 19.591087 47.620236 1.322197 7.542884 2.209037 14.925996 2.870135 18.701643 1.249637 22.418426-.282176 40.834162-6.312684 58.518315z" fill="#fedf5f" fill-rule="evenodd" transform="matrix(-1 0 0 -1 924 411)"/></svg>

<svg xmlns="http://www.w3.org/2000/svg" width="237" height="252" viewBox="0 0 237 252">
  <path fill="#FEDF5F" fill-rule="evenodd" d="M917.283926,345.07252 C910.616507,364.833698 898.547429,379.860603 881.665232,390.834364 C867.733792,399.857233 852.681709,405.608998 836.557357,408.686696 C820.150829,411.915757 803.849109,411.966211 787.499016,407.55148 C773.938435,403.775833 761.724239,397.16635 750.469441,388.420977 C733.208183,375.168691 718.144778,359.056729 705.877545,340.725061 C697.895991,328.742218 691.551058,316.010974 688.600302,301.732471 C685.697918,288.051009 686.866934,274.697498 691.107638,261.587848 C695.29997,248.621151 701.790022,236.941033 709.457151,226.000909 C721.30855,209.342656 734.933628,194.366205 750.808052,181.81155 C762.13541,172.78868 774.341544,165.55693 788.232674,161.545831 C801.325648,157.829048 814.321875,158.291543 827.366476,162.218552 C841.491409,166.439876 854.100652,173.839807 865.879492,182.929949 C879.423947,193.458032 891.331781,205.726781 901.135388,220.232326 C910.749615,234.523696 917.420217,250.73799 920.726475,267.852562 C922.048672,275.395446 922.935512,282.778558 923.59661,286.554205 C924.846247,308.972631 923.314434,327.388367 917.283926,345.07252 Z" transform="rotate(180 462 205.5)"/>
</svg>
